svg/haproxy.svg

<?xml version="1.0" encoding="UTF-8"?>
<svg xmlns="http://www.w3.org/2000/svg" xmlns:xlink="http://www.w3.org/1999/xlink" width="31.030001" height="32" viewBox="0 0 31.030001 32">
<path fill="none" stroke-width="2.016" stroke-linecap="round" stroke-linejoin="round" stroke="rgb(15.686275%, 29.019609%, 41.568628%)" stroke-opacity="1" stroke-miterlimit="4" d="M 124 92.53125 L 149.6875 62.84375 M 155.0625 125.25 L 185.53125 99.59375 M 155.0625 125.21875 L 185.53125 152.03125 M 149.96875 185.90625 L 124.03125 157.125 M 98.0625 185.90625 L 124.03125 157.125 M 62.5 150.90625 L 91.84375 125.21875 M 62.5 99.53125 L 91.84375 125.21875 M 124 92.46875 L 62.5 99.53125 M 124 92.46875 L 185.53125 99.53125 M 155.0625 125.21875 L 149.6875 62.84375 M 155.0625 125.21875 L 149.96875 185.90625 M 185.53125 152.03125 L 124 157.125 M 62.5 150.875 L 124.03125 157.125 M 98.0625 185.90625 L 91.8125 125.21875 M 98.0625 63.125 L 91.8125 125.21875 " transform="matrix(0.125, 0, 0, 0.125, 0, 0)"/>
<path fill="none" stroke-width="1.008" stroke-linecap="round" stroke-linejoin="round" stroke="rgb(15.686275%, 29.019609%, 41.568628%)" stroke-opacity="1" stroke-miterlimit="4" d="M 34.28125 107.4375 L 62.5 99.53125 M 68.40625 41.96875 L 98.09375 63.15625 M 104.8125 28.71875 L 98.0625 63.15625 M 104.8125 28.71875 L 149.6875 62.84375 M 142.90625 28.71875 L 149.6875 62.84375 M 179.3125 41.96875 L 149.65625 62.875 M 205.84375 69.9375 L 149.6875 62.84375 M 185.53125 99.53125 L 205.84375 69.875 M 185.53125 99.53125 L 214.3125 107.4375 M 185.53125 99.53125 L 213.75 142.4375 M 142.90625 28.71875 L 98.0625 63.15625 M 185.53125 99.53125 L 179.28125 41.96875 M 185.53125 152.03125 L 213.75 142.4375 M 185.53125 152.03125 L 214.3125 107.4375 M 185.53125 152.03125 L 205.84375 179.40625 M 185.53125 152.03125 L 179.28125 207.34375 M 149.96875 185.90625 L 179.3125 207.34375 M 149.96875 185.90625 L 205.84375 179.40625 M 149.96875 185.90625 L 143.25 220.5625 M 149.96875 185.90625 L 104.8125 220.5625 M 98.0625 185.90625 L 104.8125 220.65625 M 98.0625 185.90625 L 143.25 220.5625 M 98.09375 185.90625 L 68.40625 207.34375 M 98.0625 185.90625 L 42.125 179.6875 M 62.5 150.90625 L 42.125 179.6875 M 62.5 150.90625 L 68.40625 207.34375 M 62.5 150.90625 L 34 142.15625 M 62.5 99.53125 L 34 142.15625 M 62.5 150.90625 L 34.25 107.4375 M 68.40625 41.96875 L 62.5 99.5625 M 42.125 69.90625 L 98 63.125 " transform="matrix(0.125, 0, 0, 0.125, 0, 0)"/>
<path fill="none" stroke-width="0.784" stroke-linecap="round" stroke-linejoin="round" stroke="rgb(14.117648%, 25.098041%, 36.470589%)" stroke-opacity="1" stroke-miterlimit="4" d="M 68.40625 41.96875 L 46.6875 31.8125 M 68.40625 41.96875 L 66.71875 18.28125 M 104.8125 28.71875 L 66.71875 18.28125 M 104.8125 28.71875 L 88.46875 8.6875 M 104.8125 28.71875 L 111.59375 4.6875 M 68.40625 41.96875 L 88.4375 8.6875 M 142.90625 28.71875 L 111.59375 4.6875 M 142.90625 28.71875 L 135.84375 3.875 M 104.78125 28.71875 L 135.84375 3.875 M 142.90625 28.71875 L 159.28125 8.65625 M 179.34375 41.96875 L 159.25 8.6875 M 179.3125 41.96875 L 181.3125 18.28125 M 142.90625 28.71875 L 181.28125 18.28125 M 179.3125 41.96875 L 201.59375 30.6875 M 179.3125 41.96875 L 218 47.90625 M 205.84375 69.90625 L 218 47.90625 M 205.84375 69.90625 L 201.625 30.6875 M 205.84375 69.90625 L 231.25 67.9375 M 205.84375 69.90625 L 240.59375 89.65625 M 214.3125 107.4375 L 231.25 67.9375 M 214.3125 107.4375 L 240.5625 89.65625 M 214.3125 107.4375 L 243.65625 113.375 M 213.75 142.4375 L 243.65625 113.375 M 213.75 142.4375 L 244.5 136.78125 M 214.3125 107.4375 L 244.5 136.78125 M 213.75 142.4375 L 240 159.9375 M 205.84375 179.40625 L 240 159.9375 M 205.84375 179.40625 L 230.96875 181.9375 M 213.78125 142.4375 L 230.96875 181.9375 M 205.90625 179.40625 L 217.75 201.65625 M 205.90625 179.40625 L 201.40625 218.34375 M 201.34375 218.34375 L 179.3125 207.34375 M 179.3125 207.34375 L 181.03125 231.9375 M 179.3125 207.34375 L 217.6875 201.6875 M 179.3125 207.34375 L 159.25 241.21875 M 143.25 220.5625 L 159.25 241.1875 M 143.25 220.5625 L 181.0625 231.875 M 143.25 220.5625 L 135.84375 245.96875 M 143.25 220.5625 L 111.625 245.96875 M 104.8125 220.5625 L 111.59375 245.96875 M 104.8125 220.5625 L 135.84375 245.96875 M 104.8125 220.5625 L 88.75 241.1875 M 68.40625 207.34375 L 88.75 241.21875 M 104.8125 220.5625 L 66.4375 232.4375 M 68.40625 207.34375 L 66.4375 232.46875 M 68.40625 207.34375 L 46.40625 219.46875 M 42.125 179.6875 L 46.34375 219.46875 M 68.40625 207.34375 L 29.75 202 M 42.125 179.6875 L 29.71875 201.9375 M 42.125 179.6875 L 16.75 182.21875 M 42.125 179.6875 L 7.1875 160.21875 M 34 142.15625 L 7.1875 160.21875 M 34 142.15625 L 3.5 136.78125 M 34 142.15625 L 16.8125 182.21875 M 34.28125 107.4375 L 3.5 136.78125 M 34 142.15625 L 3.5 113.375 M 34.28125 107.4375 L 8.03125 89.9375 M 34.28125 107.4375 L 3.5 113.375 M 34.28125 107.4375 L 16.78125 67.9375 M 42.125 69.90625 L 16.75 67.9375 M 42.125 69.90625 L 8.03125 89.9375 M 42.125 69.90625 L 30.03125 49.03125 M 42.125 69.90625 L 46.65625 31.8125 M 68.40625 41.96875 L 30.03125 49.03125 " transform="matrix(0.125, 0, 0, 0.125, 0, 0)"/>
<path fill-rule="nonzero" fill="rgb(14.509805%, 43.137255%, 64.705884%)" fill-opacity="1" d="M 9.589844 17.488281 L 9.617188 13.777344 L 13.328125 13.804688 L 13.300781 17.511719 Z M 13.605469 13.402344 L 13.632812 9.691406 L 17.34375 9.71875 L 17.316406 13.425781 Z M 13.605469 21.535156 L 13.632812 17.828125 L 17.34375 17.855469 L 17.316406 21.5625 Z M 17.65625 17.453125 L 17.683594 13.742188 L 21.394531 13.769531 L 21.367188 17.476562 Z M 17.65625 17.453125 "/>
<path fill-rule="nonzero" fill="rgb(20%, 47.058824%, 73.725492%)" fill-opacity="1" d="M 17.441406 9.148438 L 17.460938 6.570312 L 20.046875 6.589844 L 20.027344 9.164062 Z M 10.976562 9.144531 L 10.996094 6.570312 L 13.582031 6.589844 L 13.5625 9.164062 Z M 6.5 13.734375 L 6.519531 11.160156 L 9.105469 11.175781 L 9.085938 13.75 Z M 6.496094 20.203125 L 6.523438 17.628906 L 9.109375 17.65625 L 9.082031 20.230469 Z M 21.917969 20.152344 L 21.933594 17.578125 L 24.523438 17.597656 L 24.503906 20.171875 Z M 21.96875 13.75 L 21.996094 11.175781 L 24.582031 11.203125 L 24.554688 13.777344 Z M 21.96875 13.75 "/>
<path fill-rule="nonzero" fill="rgb(8.627451%, 60.784316%, 83.92157%)" fill-opacity="1" d="M 4.40625 9.578125 L 4.417969 7.886719 L 6.105469 7.898438 L 6.09375 9.589844 Z M 7.707031 6.132812 L 7.71875 4.441406 L 9.410156 4.453125 L 9.398438 6.144531 Z M 12.257812 4.429688 L 12.269531 2.734375 L 13.957031 2.746094 L 13.945312 4.441406 Z M 3.410156 14.269531 L 3.421875 12.574219 L 5.101562 12.585938 L 5.089844 14.28125 Z M 24.878906 7.910156 L 26.570312 7.898438 L 26.582031 9.585938 L 24.890625 9.597656 Z M 21.574219 4.40625 L 23.265625 4.394531 L 23.277344 6.082031 L 21.585938 6.09375 Z M 17.011719 2.742188 L 18.703125 2.730469 L 18.714844 4.421875 L 17.023438 4.433594 Z M 25.863281 12.59375 L 27.554688 12.582031 L 27.566406 14.273438 L 25.875 14.285156 Z M 25.863281 12.59375 "/>
<path fill-rule="nonzero" fill="rgb(20%, 47.058824%, 73.725492%)" fill-opacity="1" d="M 10.941406 24.59375 L 10.957031 22.019531 L 13.546875 22.039062 L 13.527344 24.613281 Z M 17.40625 24.59375 L 17.425781 22.019531 L 20.011719 22.039062 L 19.992188 24.613281 Z M 17.40625 24.59375 "/>
<path fill-rule="nonzero" fill="rgb(8.627451%, 60.784316%, 83.92157%)" fill-opacity="1" d="M 24.867188 23.292969 L 24.878906 21.597656 L 26.566406 21.609375 L 26.554688 23.304688 Z M 21.597656 26.773438 L 21.609375 25.078125 L 23.300781 25.089844 L 23.289062 26.785156 Z M 17.050781 28.441406 L 17.0625 26.75 L 18.75 26.761719 L 18.738281 28.453125 Z M 25.859375 18.601562 L 25.871094 16.910156 L 27.5625 16.921875 L 27.550781 18.613281 Z M 4.40625 21.597656 L 6.101562 21.585938 L 6.113281 23.277344 L 4.417969 23.289062 Z M 7.710938 25.066406 L 9.40625 25.054688 L 9.417969 26.746094 L 7.722656 26.757812 Z M 12.238281 26.730469 L 13.933594 26.71875 L 13.945312 28.40625 L 12.25 28.417969 Z M 3.421875 16.914062 L 5.117188 16.902344 L 5.128906 18.59375 L 3.433594 18.605469 Z M 3.421875 16.914062 "/>
<path fill-rule="nonzero" fill="rgb(0%, 65.882355%, 85.490197%)" fill-opacity="1" d="M 28.417969 8.945312 L 28.425781 8.027344 L 29.359375 8.035156 L 29.355469 8.953125 Z M 29.625 11.714844 L 29.632812 10.800781 L 30.566406 10.804688 L 30.5625 11.722656 Z M 26.785156 6.496094 L 26.792969 5.578125 L 27.726562 5.582031 L 27.71875 6.5 Z M 5.363281 4.398438 L 5.371094 3.480469 L 6.304688 3.488281 L 6.300781 4.40625 Z M 0 14.628906 L 0.0078125 13.710938 L 0.941406 13.71875 L 0.933594 14.636719 Z M 24.726562 4.398438 L 24.730469 3.480469 L 25.667969 3.488281 L 25.660156 4.40625 Z M 0.535156 11.714844 L 0.539062 10.796875 L 1.476562 10.804688 L 1.46875 11.722656 Z M 10.621094 1.558594 L 10.628906 0.640625 L 11.5625 0.644531 L 11.554688 1.5625 Z M 1.667969 8.945312 L 1.675781 8.027344 L 2.609375 8.035156 L 2.605469 8.953125 Z M 3.339844 6.460938 L 3.34375 5.542969 L 4.28125 5.546875 L 4.273438 6.464844 Z M 7.867188 1.820312 L 8.785156 1.8125 L 8.792969 2.75 L 7.875 2.753906 Z M 13.535156 0.015625 L 14.453125 0.0117188 L 14.457031 0.945312 L 13.539062 0.953125 Z M 22.238281 2.765625 L 22.242188 1.847656 L 23.179688 1.851562 L 23.171875 2.769531 Z M 30.089844 14.59375 L 30.09375 13.675781 L 31.03125 13.683594 L 31.023438 14.601562 Z M 16.519531 0.917969 L 16.523438 0 L 17.460938 0.0078125 L 17.453125 0.921875 Z M 19.433594 1.519531 L 19.4375 0.605469 L 20.371094 0.609375 L 20.367188 1.527344 Z M 24.722656 27.773438 L 24.730469 26.855469 L 25.664062 26.863281 L 25.660156 27.78125 Z M 30.089844 17.542969 L 30.09375 16.625 L 31.03125 16.632812 L 31.023438 17.546875 Z M 5.363281 27.773438 L 5.371094 26.855469 L 6.304688 26.863281 L 6.296875 27.777344 Z M 29.625 20.496094 L 29.632812 19.578125 L 30.566406 19.585938 L 30.5625 20.5 Z M 19.429688 30.652344 L 19.4375 29.734375 L 20.371094 29.738281 L 20.367188 30.65625 Z M 28.417969 23.261719 L 28.425781 22.34375 L 29.359375 22.351562 L 29.355469 23.269531 Z M 26.785156 25.75 L 26.792969 24.832031 L 27.726562 24.835938 L 27.71875 25.753906 Z M 22.199219 28.5625 L 23.117188 28.558594 L 23.125 29.492188 L 22.207031 29.5 Z M 16.566406 30.296875 L 17.484375 30.289062 L 17.492188 31.226562 L 16.574219 31.230469 Z M 7.886719 29.515625 L 7.890625 28.597656 L 8.828125 28.601562 L 8.820312 29.519531 Z M 1.632812 23.226562 L 1.640625 22.308594 L 2.574219 22.3125 L 2.570312 23.230469 Z M 0.53125 20.492188 L 0.539062 19.574219 L 1.472656 19.578125 L 1.46875 20.496094 Z M 3.300781 25.746094 L 3.308594 24.828125 L 4.242188 24.835938 L 4.238281 25.753906 Z M 0 17.542969 L 0.0078125 16.625 L 0.941406 16.628906 L 0.933594 17.546875 Z M 13.570312 31.21875 L 13.574219 30.300781 L 14.511719 30.308594 L 14.503906 31.226562 Z M 10.585938 30.613281 L 10.59375 29.695312 L 11.527344 29.703125 L 11.519531 30.621094 Z M 10.585938 30.613281 "/>
</svg>

<svg role="img" viewBox="0 0 31.03 32" xmlns="http://www.w3.org/2000/svg"><path d="m15.5 11.566 3.21-3.71m.673 7.8 3.808-3.207m-3.808 3.203 3.808 3.352m-4.445 4.234-3.242-3.597m-3.246 3.597 3.246-3.597m-7.691-.778 3.667-3.21M7.812 12.44l3.668 3.211m4.02-4.093-7.687.882m7.687-.882 7.691.882m-3.808 3.211-.672-7.797m.672 7.797-.637 7.586m4.445-4.234-7.691.637m-7.687-.782 7.69.782m-3.245 3.597-.781-7.586m.78-7.761-.78 7.761" fill="none" stroke="rgb(15.686275%, 29.019609%, 41.568628%)" stroke-linecap="round" stroke-linejoin="round" stroke-width=".252"/><path d="m4.285 13.43 3.528-.989m.738-7.195 3.71 2.649m.84-4.305-.843 4.305m.844-4.305 5.609 4.265m-.848-4.265.848 4.265m3.703-2.609L18.707 7.86m7.023.883-7.02-.887m4.481 4.586 2.54-3.707m-2.54 3.707 3.598.989m-3.598-.989 3.528 5.364M17.863 3.59l-5.605 4.305M23.19 12.44l-.78-7.195m.78 13.758 3.528-1.2m-3.528 1.2 3.598-5.574m-3.598 5.574 2.54 3.422m-2.54-3.422-.78 6.914m-3.665-2.68 3.668 2.68m-3.668-2.68 6.984-.812m-6.984.812-.84 4.332m.84-4.332-5.644 4.332m-.844-4.332.844 4.344m-.844-4.344 5.648 4.332m-5.644-4.332-3.711 2.68m3.707-2.68-6.992-.777m2.547-3.598L5.265 22.46m2.547-3.598.738 7.055m-.739-7.055L4.25 17.77m3.563-5.329L4.25 17.77m3.563 1.093L4.28 13.43m4.27-8.184-.739 7.2M5.267 8.737l6.984-.847" fill="none" stroke="rgb(15.686275%, 29.019609%, 41.568628%)" stroke-linecap="round" stroke-linejoin="round" stroke-width=".126"/><path d="m8.55 5.246-2.714-1.27m2.715 1.27-.211-2.96m4.762 1.304L8.34 2.285m4.762 1.305-2.043-2.504m2.043 2.504.847-3.004m-5.398 4.66 2.504-4.16m6.808 2.504L13.95.586m3.914 3.004L16.98.484M13.098 3.59 16.98.484m.883 3.106 2.047-2.508m2.508 4.164-2.512-4.16m2.508 4.16.25-2.96m-4.8 1.304 4.796-1.305m-.246 2.961 2.785-1.41m-2.785 1.41 4.836.742m-1.52 2.75 1.52-2.75m-1.52 2.75-.527-4.902m.527 4.902 3.176-.246m-3.176.246 4.344 2.469M26.79 13.43l2.117-4.938M26.79 13.43l3.281-2.223m-3.28 2.223 3.667.742m-3.738 3.633 3.738-3.633m-3.738 3.633 3.843-.707M26.79 13.43l3.773 3.668m-3.843.707L30 19.992m-4.27 2.434L30 19.992m-4.27 2.434 3.141.316m-2.148-4.937 2.148 4.937m-3.133-.316 1.48 2.781m-1.48-2.781-.562 4.867m-.008 0-2.754-1.375m0 0 .215 3.074m-.215-3.074 4.797-.707m-4.797.707-2.508 4.234m-2-2.582 2 2.578m-2-2.578 4.727 1.414m-4.727-1.414-.926 3.176m.926-3.176-3.953 3.176m-.851-3.176.847 3.176m-.847-3.176 3.878 3.176m-3.878-3.176-2.008 2.578m-2.543-4.23 2.543 4.234m2.008-2.582-4.797 1.485m.246-3.137-.246 3.14m.246-3.14L5.8 27.434m-.535-4.973.527 4.973m2.758-1.516-4.832-.668m1.547-2.79-1.551 2.782m1.55-2.781-3.171.316m3.172-.316L.898 20.027M4.25 17.77.898 20.027M4.25 17.77l-3.812-.672m3.812.672-2.148 5.007m2.183-9.347L.438 17.098m3.812.672L.438 14.172m3.847-.742-3.281-2.188m3.281 2.188-3.847.742m3.847-.742L2.098 8.492m3.168.246-3.172-.246m3.172.246-4.262 2.504m4.262-2.504-1.512-2.61m1.512 2.61.566-4.761m2.719 1.27-4.797.882" fill="none" stroke="rgb(14.117648%, 25.098041%, 36.470589%)" stroke-linecap="round" stroke-linejoin="round" stroke-width=".098"/><path d="m9.59 17.488.027-3.71 3.711.027-.027 3.707Zm4.015-4.086.028-3.71 3.71.027-.027 3.707Zm0 8.133.028-3.707 3.71.027-.027 3.707Zm4.051-4.082.028-3.71 3.71.027-.027 3.707Zm0 0" fill="rgb(14.509805%, 43.137255%, 64.705884%)"/><path d="m17.441 9.148.02-2.578 2.586.02-.02 2.574Zm-6.464-.003.02-2.575 2.585.02-.02 2.574ZM6.5 13.735l.02-2.575 2.585.016-.02 2.574Zm-.004 6.468.027-2.574 2.586.027-.027 2.574Zm15.422-.05.016-2.575 2.59.02-.02 2.574Zm.05-6.403.028-2.574 2.586.027-.027 2.574Zm0 0" fill="rgb(20%, 47.058824%, 73.725492%)"/><path d="m4.406 9.578.012-1.691 1.687.011-.011 1.692Zm3.301-3.445.012-1.692 1.691.012-.012 1.692Zm4.55-1.703.013-1.696 1.687.012-.012 1.695ZM3.41 14.27l.012-1.696 1.68.012-.012 1.695Zm21.47-6.36 1.691-.012.012 1.688-1.691.012Zm-3.305-3.504 1.692-.011.011 1.687-1.691.012Zm-4.562-1.664 1.691-.012.012 1.692-1.692.012Zm8.851 9.852 1.692-.012.011 1.691-1.691.012Zm0 0" fill="rgb(8.627451%, 60.784316%, 83.92157%)"/><path d="m10.941 24.594.016-2.574 2.59.02-.02 2.573Zm6.465 0 .02-2.574 2.586.02-.02 2.573Zm0 0" fill="rgb(20%, 47.058824%, 73.725492%)"/><path d="m24.867 23.293.012-1.695 1.687.011-.011 1.696Zm-3.27 3.48.012-1.695 1.692.012-.012 1.695Zm-4.546 1.668.012-1.691 1.687.012-.012 1.691Zm8.808-9.84.012-1.69 1.692.01-.012 1.692ZM4.406 21.599l1.696-.012.011 1.691-1.695.012Zm3.305 3.468 1.695-.011.012 1.691-1.695.012Zm4.527 1.664 1.696-.011.011 1.687-1.695.012Zm-8.816-9.816 1.695-.012.012 1.692-1.695.011Zm0 0" fill="rgb(8.627451%, 60.784316%, 83.92157%)"/><path d="m28.418 8.945.008-.918.933.008-.004.918Zm1.207 2.77.008-.914.933.004-.003.918Zm-2.84-5.219.008-.918.934.004-.008.918ZM5.363 4.398l.008-.918.934.008-.004.918ZM0 14.628l.008-.917.933.008-.007.918Zm24.727-10.23.003-.918.938.008-.008.918ZM.535 11.715l.004-.918.938.008-.008.918ZM10.621 1.559 10.63.64l.934.004-.008.918ZM1.668 8.945l.008-.918.933.008-.004.918ZM3.34 6.461l.004-.918.937.004-.008.918Zm4.527-4.64.918-.008.008.937-.918.004ZM13.535.015l.918-.004.004.933-.918.008Zm8.703 2.75.004-.918.938.004-.008.918Zm7.852 11.828.004-.918.937.008-.008.918ZM16.52.918 16.523 0l.938.008-.008.914Zm2.914.602.003-.915.934.004-.004.918Zm5.289 26.253.007-.918.934.008-.004.918Zm5.367-10.23.004-.918.937.008-.008.914ZM5.363 27.773l.008-.918.934.008-.008.914Zm24.262-7.277.008-.918.933.008-.003.914ZM19.43 30.652l.008-.918.933.004-.004.918Zm8.988-7.39.008-.918.933.008-.004.918Zm-1.633 2.488.008-.918.934.004-.008.918ZM22.2 28.563l.918-.004.008.933-.918.008Zm-5.633 1.734.918-.008.008.938-.918.003Zm-8.68-.781.005-.918.937.004-.008.918Zm-6.253-6.29.008-.917.933.003-.004.918ZM.53 20.493l.008-.918.934.004-.004.918Zm2.77 5.254.008-.918.933.008-.004.918ZM0 17.543l.008-.918.933.004-.007.918Zm13.57 13.676.004-.918.938.008-.008.918Zm-2.984-.606.008-.918.933.008-.007.918Zm0 0" fill="rgb(0%, 65.882355%, 85.490197%)"/></svg>
